public/icons/document_icon.svg

<svg width="330" height="330" viewBox="0 0 330 330" fill="none" xmlns="http://www.w3.org/2000/svg">
<path d="M238.887 157.966C277.565 155.403 311.048 184.576 313.816 223.251C316.584 261.926 287.597 295.571 248.947 298.545C210.006 301.541 176.059 272.28 173.271 233.314C170.482 194.348 199.916 160.549 238.887 157.966Z" fill="black"/>
<path d="M235.038 167.781C268.527 163.078 299.434 186.566 303.882 220.099C308.329 253.631 284.614 284.367 251.056 288.561C217.858 292.709 187.529 269.296 183.128 236.122C178.729 202.947 201.906 172.433 235.038 167.781Z" fill="#FED300"/>
<path d="M271.396 197.343C272.886 197.325 274.467 197.432 275.805 198.171C277.188 198.933 277.395 199.796 277.843 201.168C277.68 203.168 276.964 204.79 275.925 206.474C272.897 211.38 268.925 215.97 265.558 220.677C259.498 229.151 245.624 250.964 238.588 256.794C236.91 258.186 235.526 258.843 233.334 258.629C226.584 254.041 218.671 241.463 213.546 234.737C211.45 232.042 208.929 229.296 208.49 225.783C208.226 223.675 208.496 222.134 209.774 220.436C210.41 220.158 211.111 219.687 211.804 219.772C217.946 220.524 231.469 240.987 235.772 246.634L257.389 215.818C261.564 209.88 265.945 202.071 271.396 197.343Z" fill="black"/>
<path d="M55.777 24.1984C65.8 23.7985 75.9481 24.127 85.9901 24.1257L143.595 24.1129L184.829 24.0989C193.278 24.0915 201.854 23.7487 210.276 24.4416C219.978 32.3611 228.798 42.652 237.685 51.5333C247.912 61.7544 259.457 71.837 268.655 82.9545C269.135 94.1739 268.765 105.567 268.818 116.81C268.855 124.622 269.585 133.054 268.682 140.775C268.455 142.714 267.948 145.13 266.673 146.641C265.942 147.508 265.232 148.035 264.05 148.048C262.664 148.062 261.354 147.396 260.408 146.421C259.676 145.668 259.296 145.003 259.096 143.964C258.168 139.13 258.864 132.86 258.867 127.913L258.925 91.251C248.359 91.2808 227.479 92.5591 218.268 90.734C214.553 89.9975 210.881 88.5915 208.142 85.8832C205.629 83.3961 204.121 80.1675 203.305 76.7599C200.903 66.7319 202.366 45.1333 202.41 33.912L103.132 33.9679L74.8595 33.8953C69.0634 33.8536 62.9707 33.4468 57.2012 34.0336C55.1333 34.2438 53.8367 34.7504 52.3968 36.3012C51.0016 37.8045 50.7481 39.3968 50.5227 41.3579C49.3587 51.4853 50.2361 62.5978 50.2419 72.8271L50.2899 134.646L50.3007 235.34C50.2957 251.718 49.5302 268.421 50.2891 284.763C50.3852 286.848 50.3695 289.967 51.6213 291.74C52.4034 292.849 53.5508 294.085 54.888 294.484C61.0793 296.327 73.1221 295.105 79.8602 295.095L153.562 295.018C163.288 294.984 185.152 293.618 193.058 295.688C195.251 296.262 196.435 297.947 197.429 299.849C197.43 300.614 197.546 301.029 197.158 301.72C196.328 303.197 194.203 303.955 192.662 304.338C184.115 306.464 152.057 304.934 141.506 304.958L86.1517 305.06C76.3366 305.072 66.2962 305.559 56.5185 304.888C53.6022 304.687 50.8914 304.004 48.3894 302.447C44.4731 300.01 42.001 296.242 41.0142 291.775C39.1659 283.414 40.4508 272.955 40.45 264.342L40.4335 207.283L40.4566 98.4207C40.4376 80.1111 39.4666 61.3567 40.4152 43.1143C40.6149 39.2742 41.0341 34.9691 43.2047 31.6885C46.1318 27.2648 50.739 25.1688 55.777 24.1984Z" fill="black"/>
<path d="M212.388 40.5625C217.25 44.1233 221.781 49.6485 226.047 53.9392L253.39 81.2569C243.916 81.2867 228.664 82.812 219.853 80.8899C215.926 80.0332 214.477 78.1592 212.448 74.9347C211.987 63.5356 212.377 51.9782 212.388 40.5625Z" fill="#FEFEFE"/>
<path d="M83.7097 120.431C115.174 120.06 146.702 120.346 178.171 120.465C191.969 120.517 205.928 119.849 219.703 120.278C222.839 120.376 226.251 120.959 228.475 123.361C229.143 124.797 229.383 125.845 228.868 127.4C228.254 129.249 226.692 130.027 225.084 130.904L130.613 130.906C115.663 130.905 99.9621 131.916 85.1057 130.827C83.5216 130.71 81.9127 129.994 80.9434 128.699C80.129 127.612 79.9268 126.262 80.1323 124.94C80.4803 122.697 81.9409 121.634 83.7097 120.431Z" fill="black"/>
<path d="M84.7478 154.802L158.038 154.858C165.317 154.885 175.357 153.4 182.322 155.216C184.398 155.758 185.556 156.364 186.671 158.208C186.927 159.677 186.879 160.643 186.298 162.044C185.528 163.894 184.152 164.416 182.371 165.067L113.364 164.962C104.516 164.952 93.6498 166.474 85.0411 164.666C82.8431 164.205 81.1547 163.482 79.926 161.56C79.559 159.89 79.9666 158.676 80.8291 157.204C81.7329 155.662 83.1182 155.262 84.7478 154.802Z" fill="black"/>
<path d="M84.342 86.3098C102.286 86.0025 120.278 86.2875 138.227 86.2494C149.651 86.2245 161.48 85.5733 172.865 86.3281C175.591 86.5095 177.718 86.6752 179.604 88.8483C180.122 90.2145 180.323 91.2435 179.935 92.6859C179.338 94.9079 178.097 95.7968 176.179 96.902L111.031 96.9484C103.922 96.9526 89.9136 98.1531 83.5467 96.4646C82.3421 96.1448 81.2477 95.1672 80.6686 94.0786C79.9229 92.6759 79.7994 91.0198 80.4092 89.5501C81.1598 87.7431 82.6635 87.0919 84.342 86.3098Z" fill="black"/>
<path d="M83.432 188.934L127.232 188.838C134.643 188.824 142.574 188.243 149.936 189.097C151.872 189.321 153.46 189.733 154.59 191.441C155.315 192.535 155.472 194.083 155.196 195.339C154.779 197.238 153.31 198.079 151.755 199.017C130.782 199.066 109.322 200.035 88.3946 199.067C85.5082 198.933 82.7187 198.922 80.6541 196.653C80.0957 195.338 79.8546 194.435 80.1512 193.003C80.5671 190.988 81.7626 189.974 83.432 188.934Z" fill="black"/>
</svg>

<svg xmlns="http://www.w3.org/2000/svg" width="330" height="330" fill="none" viewBox="0 0 330 330"><path fill="#000" d="M238.887 157.966c38.678-2.563 72.161 26.61 74.929 65.285s-26.219 72.32-64.869 75.294c-38.941 2.996-72.888-26.265-75.676-65.231-2.789-38.966 26.645-72.765 65.616-75.348"/><path fill="#fed300" d="M235.038 167.781c33.489-4.703 64.396 18.785 68.844 52.318 4.447 33.532-19.268 64.268-52.826 68.462-33.198 4.148-63.527-19.265-67.928-52.439-4.399-33.175 18.778-63.689 51.91-68.341"/><path fill="#000" d="M271.396 197.343c1.49-.018 3.071.089 4.409.828 1.383.762 1.59 1.625 2.038 2.997-.163 2-.879 3.622-1.918 5.306-3.028 4.906-7 9.496-10.367 14.203-6.06 8.474-19.934 30.287-26.97 36.117-1.678 1.392-3.062 2.049-5.254 1.835-6.75-4.588-14.663-17.166-19.788-23.892-2.096-2.695-4.617-5.441-5.056-8.954-.264-2.108.006-3.649 1.284-5.347.636-.278 1.337-.749 2.03-.664 6.142.752 19.665 21.215 23.968 26.862l21.617-30.816c4.175-5.938 8.556-13.747 14.007-18.475"/><path fill="#000" d="M55.777 24.198c10.023-.4 20.171-.071 30.213-.072l57.605-.013 41.234-.014c8.449-.008 17.025-.35 25.447.343 9.702 7.92 18.522 18.21 27.409 27.091 10.227 10.221 21.772 20.304 30.97 31.421.48 11.22.11 22.613.163 33.856.037 7.812.767 16.244-.136 23.965-.227 1.939-.734 4.355-2.009 5.866-.731.867-1.441 1.394-2.623 1.407-1.386.014-2.696-.652-3.642-1.627-.732-.753-1.112-1.418-1.312-2.457-.928-4.834-.232-11.104-.229-16.051l.058-36.662c-10.566.03-31.446 1.308-40.657-.517-3.715-.736-7.387-2.142-10.126-4.85-2.513-2.488-4.021-5.716-4.837-9.124-2.402-10.028-.939-31.627-.895-42.848l-99.278.056-28.273-.073c-5.796-.041-11.888-.448-17.658.139-2.068.21-3.364.716-4.804 2.267-1.395 1.503-1.649 3.096-1.874 5.057-1.164 10.127-.287 21.24-.281 31.47l.048 61.818.01 100.694c-.004 16.378-.77 33.081-.01 49.423.095 2.085.08 5.204 1.331 6.977.782 1.109 1.93 2.345 3.267 2.744 6.191 1.843 18.234.621 24.972.611l73.702-.077c9.726-.034 31.59-1.4 39.496.67 2.193.574 3.377 2.259 4.371 4.161.001.765.117 1.18-.271 1.871-.83 1.477-2.955 2.235-4.496 2.618-8.547 2.126-40.605.596-51.156.62l-55.354.102c-9.815.012-19.856.499-29.633-.172-2.917-.201-5.628-.884-8.13-2.441-3.916-2.437-6.388-6.205-7.375-10.672-1.848-8.361-.563-18.82-.564-27.433l-.017-57.059.024-108.862c-.02-18.31-.99-37.064-.042-55.307.2-3.84.62-8.145 2.79-11.425 2.927-4.424 7.534-6.52 12.572-7.49"/><path fill="#fefefe" d="M212.388 40.563c4.862 3.56 9.393 9.085 13.659 13.376l27.343 27.318c-9.474.03-24.726 1.555-33.537-.367-3.927-.857-5.376-2.73-7.405-5.955-.461-11.4-.071-22.957-.06-34.372"/><path fill="#000" d="M83.71 120.431c31.464-.371 62.992-.085 94.461.034 13.798.052 27.757-.616 41.532-.187 3.136.098 6.548.681 8.772 3.083.668 1.436.908 2.484.393 4.039-.614 1.849-2.176 2.627-3.784 3.504l-94.471.002c-14.95-.001-30.65 1.01-45.507-.079-1.584-.117-3.193-.833-4.163-2.128-.814-1.087-1.016-2.437-.81-3.759.347-2.243 1.808-3.306 3.577-4.509m1.038 34.371 73.29.056c7.279.027 17.319-1.458 24.284.358 2.076.542 3.234 1.148 4.349 2.992.256 1.469.208 2.435-.373 3.836-.77 1.85-2.146 2.372-3.927 3.023l-69.007-.105c-8.848-.01-19.714 1.512-28.323-.296-2.198-.461-3.886-1.184-5.115-3.106-.367-1.67.04-2.884.903-4.356.904-1.542 2.29-1.942 3.919-2.402m-.406-68.492c17.944-.308 35.936-.023 53.885-.06 11.424-.025 23.253-.677 34.638.078 2.726.181 4.853.347 6.739 2.52.518 1.367.719 2.395.331 3.838-.597 2.222-1.838 3.11-3.756 4.216l-65.148.046c-7.109.005-21.117 1.205-27.484-.483-1.205-.32-2.3-1.298-2.878-2.386-.746-1.403-.87-3.06-.26-4.529.75-1.807 2.254-2.458 3.933-3.24m-.91 102.624 43.8-.096c7.411-.014 15.342-.595 22.704.259 1.936.224 3.524.636 4.654 2.344.725 1.094.882 2.642.606 3.898-.417 1.899-1.886 2.74-3.441 3.678-20.973.049-42.433 1.018-63.36.05-2.887-.134-5.676-.145-7.74-2.414-.56-1.315-.8-2.218-.504-3.65.416-2.015 1.612-3.029 3.281-4.069"/></svg>
